**kern	**silbe	**harmony	**phrase	**leadinstrument	**rhyme	**timestamp	**harte
*ICvox	*	*M12/8	*	*	*	*	*M12/8
*VRlead	*	*	*	*	*	*	*
*Hstimme	*	*	*	*	*	*	*
*D-:	*	*D-:	*	*	*	*	*D-:
*M12/8	*	*	*	*	*	*	*
*clefF4	*	*	*	*	*	*	*
r;	.	1r;	.	r	.	0	N.C.
=1	=1	=1	=1	=1	=1	=1	=1
*>Letter>A	*>Letter>A	*>Letter>A	*>Letter>A	*>Letter>A	*>Letter>A	*>Letter>A	*>Letter>A
*>Label>Intro	*>Label>Intro	*>Label>Intro	*>Label>Intro	*>Label>Intro	*>Label>Intro	*>Label>Intro	*>Label>Intro
2.r	.	4.N	newline	piano	.	1.416	N.C.
.	.	4.D-M	.	piano	.	2.063	D-:maj/3
4.r	.	4.D-d	.	piano	.	2.709	D-:dim/b3
4AA-	I	4.E-mm	.	piano	.	3.355	E-:min7
8BB-	was	.	.	.	.	.	.
=2	=2	=2	=2	=2	=2	=2	=2
*>Letter>B	*>Letter>B	*>Letter>B	*>Letter>B	*>Letter>B	*>Letter>B	*>Letter>B	*>Letter>B
*>Label>Verse	*>Label>Verse	*>Label>Verse	*>Label>Verse	*>Label>Verse	*>Label>Verse	*>Label>Verse	*>Label>Verse
4D-	to-	1.D-M	newline	voice	.	4.001	D-:maj
8D-	-tin'	.	.	.	.	.	.
4D-	my	.	.	.	.	.	.
[8D-	pack	.	.	.	.	.	.
8D-]	_	.	.	.	.	.	.
8r	.	.	.	.	.	.	.
8AA-	a-	.	.	.	.	.	.
4BB-	-long	.	.	.	.	.	.
8AA-	the	.	.	.	.	.	.
=3	=3	=3	=3	=3	=3	=3	=3
4D-	du-	1.D-M	.	voice	.	7.187	D-:maj
4.D-	-sty	.	.	.	.	.	.
16D-	Wi-	.	.	.	.	.	.
16D-	-nne-	.	.	.	.	.	.
16F	-mu-	.	.	.	.	.	.
16D-	-cca	.	.	.	.	.	.
4BB-	roa-	.	.	.	A	.	.
8AA-	-d	.	.	.	.	.	.
8r	.	.	.	.	.	.	.
16AA-	When	.	.	.	.	.	.
16AA-	a-	.	.	.	.	.	.
=4	=4	=4	=4	=4	=4	=4	=4
4.D-	-long	1.D-M	.	voice	.	10.374	D-:maj
4D-	came	.	.	.	.	.	.
8D-	a	.	.	.	.	.	.
8.D-	se-	.	.	.	.	.	.
[8.D-	-mi	.	.	.	.	.	.
8D-]	_	.	.	.	.	.	.
8r	.	.	.	.	.	.	.
16AA-	with	.	.	.	.	.	.
16AA-	a	.	.	.	.	.	.
=5	=5	=5	=5	=5	=5	=5	=5
4.D-	high	1.D-M	.	voice	.	13.56	D-:maj
4D-	can-	.	.	.	.	.	.
8D-	-vas	.	.	.	.	.	.
16F	co-	.	.	.	.	.	.
16D-	-vered	.	.	.	.	.	.
4BB-	load	.	.	.	A	.	.
8.r	.	.	.	.	.	.	.
16AA-	If	.	.	.	.	.	.
8AA-	you're	.	.	.	.	.	.
=6	=6	=6	=6	=6	=6	=6	=6
4D-	going	1.G-Mm	newline	voice	.	16.746	G-:7
4.D-	to	.	.	.	.	.	.
16D-	Wi-	.	.	.	.	.	.
16D-	-nee-	.	.	.	.	.	.
16D-	-mu-	.	.	.	.	.	.
8D-	-cca	.	.	.	.	.	.
8.D-	Mack	.	.	.	.	.	.
4r	.	.	.	.	.	.	.
8BB-	with	.	.	.	.	.	.
=7	=7	=7	=7	=7	=7	=7	=7
4D-	me	1.G-Mm	.	voice	.	19.931	G-:7
8D-	you	.	.	.	.	.	.
8BB-	can	.	.	.	.	.	.
[4D-	ride	.	.	.	B	.	.
4D-]	_	.	.	.	.	.	.
8r	.	.	.	.	.	.	.
8.r	.	.	.	.	.	.	.
16AA-	So	.	.	.	.	.	.
8AA-	I	.	.	.	.	.	.
=8	=8	=8	=8	=8	=8	=8	=8
4D-	climbed	1.D-M	.	voice	.	23.116	D-:maj
8D-	in-	.	.	.	.	.	.
4D-	-to	.	.	.	.	.	.
8D-	the	.	.	.	.	.	.
4D-	ca-	.	.	.	.	.	.
[8AA-	-bin	.	.	.	.	.	.
8.AA-]	_	.	.	.	.	.	.
16AA-	and	.	.	.	.	.	.
8AA-	I	.	.	.	.	.	.
=9	=9	=9	=9	=9	=9	=9	=9
16D-	sett-	1.D-M	.	voice	.	26.302	D-:maj
16D-	-led	.	.	.	.	.	.
[4D-	down	.	.	.	.	.	.
4D-]	_	.	.	.	.	.	.
8D-	in	.	.	.	.	.	.
4.D-	side	.	.	.	B	.	.
4r	.	.	.	.	.	.	.
8AA-	He	.	.	.	.	.	.
=10	=10	=10	=10	=10	=10	=10	=10
4E-	asked	1.A-Mm	newline	voice	.	29.487	A-:7
[8E-	me	.	.	.	.	.	.
8.E-]	_	.	.	.	.	.	.
16E-	if	.	.	.	.	.	.
8E-	I'd	.	.	.	.	.	.
16E-	seen	.	.	.	.	.	.
16AA-	a	.	.	.	.	.	.
4BB-	roa-	.	.	.	.	.	.
8AA-	-d	.	.	.	.	.	.
8r	.	.	.	.	.	.	.
8AA-	with	.	.	.	.	.	.
=11	=11	=11	=11	=11	=11	=11	=11
4E-	so	1.A-Mm	.	voice	.	33.125	A-:7
8E-	much	.	.	.	.	.	.
4E-	dust	.	.	.	.	.	.
8E-	and	.	.	.	.	.	.
4E-	sand	.	.	.	C	.	.
8AA-	And	.	.	.	.	.	.
4BB-	I	.	.	.	.	.	.
8AA-	said	.	.	.	.	.	.
=12	=12	=12	=12	=12	=12	=12	=12
16D-	list-	1.D-M	.	voice	.	36.764	D-:maj
8AA-	-en	.	.	.	.	.	.
16BB-	bud	.	.	.	.	.	.
16D-	_	.	.	.	.	.	.
16r	.	.	.	.	.	.	.
4r	.	.	.	.	.	.	.
8D-	I've	.	.	.	.	.	.
4D-	tra-	.	.	.	.	.	.
8D-	-velled	.	.	.	.	.	.
4BB-	ev-	.	.	.	.	.	.
8AA-	-ery	.	.	.	.	.	.
=13	=13	=13	=13	=13	=13	=13	=13
4D-	road	1.D-M	.	voice	.	40.403	D-:maj
8D-	in	.	.	.	.	.	.
4D-	this	.	.	.	.	.	.
8D-	here	.	.	.	.	.	.
4.D-	land	.	.	.	C	.	.
4.r	.	.	.	.	.	.	.
=14	=14	=14	=14	=14	=14	=14	=14
*>Letter>C	*>Letter>C	*>Letter>C	*>Letter>C	*>Letter>C	*>Letter>C	*>Letter>C	*>Letter>C
*>Label>Chorus	*>Label>Chorus	*>Label>Chorus	*>Label>Chorus	*>Label>Chorus	*>Label>Chorus	*>Label>Chorus	*>Label>Chorus
*	*	*M4/4	*	*	*	*	*M4/4
4F	I've	1D-M	newline	voice	.	41.231	D-:maj
8D-	been	.	.	.	.	.	.
4.D-	eve-	.	.	.	.	.	.
4BB-	-ry-	.	.	.	.	.	.
=15	=15	=15	=15	=15	=15	=15	=15
2D-	-where	1D-M	.	voice	D	42.254	D-:maj
4.F	man	.	.	.	.	.	.
[8F	I've	.	.	.	.	.	.
=16	=16	=16	=16	=16	=16	=16	=16
4F]	_	1D-M	.	voice	.	43.278	D-:maj
8D-	been	.	.	.	.	.	.
4.D-	eve-	.	.	.	.	.	.
4BB-	-ry-	.	.	.	.	.	.
=17	=17	=17	=17	=17	=17	=17	=17
2D-	-where	1D-M	.	voice	D	44.301	D-:maj
4F	man	.	.	.	.	.	.
4r	.	.	.	.	.	.	.
=18	=18	=18	=18	=18	=18	=18	=18
4F	Cross	1G-Mm	newline	voice	.	45.325	G-:7
8D-	the	.	.	.	.	.	.
4.D-	de-	.	.	.	.	.	.
4BB-	-serts	.	.	.	.	.	.
=19	=19	=19	=19	=19	=19	=19	=19
4.D-	bare	1G-Mm	.	voice	D	46.343	G-:7
4.F	man	.	.	.	.	.	.
4D-	I've	.	.	.	.	.	.
=20	=20	=20	=20	=20	=20	=20	=20
4F	breathed	1D-M	.	voice	.	47.361	D-:maj
8D-	the	.	.	.	.	.	.
4.D-	moun-	.	.	.	.	.	.
4BB-	-tain	.	.	.	.	.	.
=21	=21	=21	=21	=21	=21	=21	=21
4.D-	air	1D-M	.	voice	D	48.378	D-:maj
4.F	man	.	.	.	.	.	.
4D-	Of	.	.	.	.	.	.
=22	=22	=22	=22	=22	=22	=22	=22
8F	tra-	1A-Mm	newline	voice	.	49.396	A-:7
8E-	-vel	.	.	.	.	.	.
4E-	I've	.	.	.	.	.	.
4C	had	.	.	.	.	.	.
4AA-	my	.	.	.	.	.	.
=23	=23	=23	=23	=23	=23	=23	=23
2E-	share	1A-Mm	.	voice	D	50.403	A-:7
4.F	man	.	.	.	.	.	.
[8F	I've	.	.	.	.	.	.
=24	=24	=24	=24	=24	=24	=24	=24
4F]	_	1A-Mm	.	voice	.	51.41	A-:7
8D-	been	.	.	.	.	.	.
4.D-	eve-	.	.	.	.	.	.
4BB-	-ry-	.	.	.	.	.	.
=25	=25	=25	=25	=25	=25	=25	=25
1D-	-where	1D-M	.	voice	D	52.416	D-:maj
=26	=26	=26	=26	=26	=26	=26	=26
2r	.	1D-M	.	voice	.	53.423	D-:maj
4r	.	.	.	.	.	.	.
8AA-	Been	.	.	.	.	.	.
8AA-	to	.	.	.	.	.	.
=27	=27	=27	=27	=27	=27	=27	=27
*>Letter>B2	*>Letter>B2	*>Letter>B2	*>Letter>B2	*>Letter>B2	*>Letter>B2	*>Letter>B2	*>Letter>B2
*>Label>Verse	*>Label>Verse	*>Label>Verse	*>Label>Verse	*>Label>Verse	*>Label>Verse	*>Label>Verse	*>Label>Verse
4D-	Re-	1D-M	newline	voice	.	54.43	D-:maj
8D-	-no	.	.	.	E	.	.
8D-	Chi-	.	.	.	.	.	.
4D-	-ca-	.	.	.	.	.	.
4D-	-go	.	.	.	E	.	.
=28	=28	=28	=28	=28	=28	=28	=28
4D-	Far-	1D-M	.	voice	.	55.446	D-:maj
4D-	-go	.	.	.	E	.	.
8D-	Mi-	.	.	.	.	.	.
8D-	-nne-	.	.	.	.	.	.
8D-	-so-	.	.	.	E	.	.
8D-	-ta	.	.	.	.	.	.
=29	=29	=29	=29	=29	=29	=29	=29
8D-	Bu-	1D-M	.	voice	.	56.462	D-:maj
8D-	-ffa-	.	.	.	.	.	.
8D-	-lo	.	.	.	E	.	.
8D-	To-	.	.	.	.	.	.
4D-	-ron-	.	.	.	.	.	.
4D-	-to	.	.	.	E	.	.
=30	=30	=30	=30	=30	=30	=30	=30
4D-	Win-	1D-M	.	voice	.	57.478	D-:maj
4D-	-slow	.	.	.	E	.	.
8D-	Sa-	.	.	.	.	.	.
8D-	-ra-	.	.	.	.	.	.
8D-	-so-	.	.	.	E	.	.
8D-	-ta	.	.	.	F	.	.
=31	=31	=31	=31	=31	=31	=31	=31
8D-	Wi-	1G-Mm	newline	voice	.	58.494	G-:7
8D-	-chi-	.	.	.	.	.	.
4D-	-ta	.	.	.	F	.	.
4D-	Tul-	.	.	.	.	.	.
8D-	-sa	.	.	.	F	.	.
[8BB-	O-	.	.	.	.	.	.
=32	=32	=32	=32	=32	=32	=32	=32
8BB-]	_	1G-Mm	.	voice	.	59.496	G-:7
8D-	-tta-	.	.	.	.	.	.
8D-	-wa	.	.	.	F	.	.
4D-	Ok-	.	.	.	E	.	.
8D-	-la-	.	.	.	F	.	.
8D-	-ho-	.	.	.	.	.	.
8D-	-ma	.	.	.	F	.	.
=33	=33	=33	=33	=33	=33	=33	=33
4D-	Tam-	1D-M	.	voice	G	60.498	D-:maj
4D-	-pa	.	.	.	F	.	.
8D-	Pa-	.	.	.	G	.	.
8D-	-na-	.	.	.	.	.	.
4D-	-ma	.	.	.	F	.	.
=34	=34	=34	=34	=34	=34	=34	=34
8D-	Ma-	1D-M	.	voice	G	61.5	D-:maj
8D-	-tta-	.	.	.	.	.	.
4D-	-wa	.	.	.	F	.	.
8D-	La	.	.	.	G	.	.
8D-	Pa-	.	.	.	F	.	.
8D-	-lo-	.	.	.	E	.	.
8D-	-ma	.	.	.	F	.	.
=35	=35	=35	=35	=35	=35	=35	=35
4E-	Ban-	1A-Mm	newline	voice	.	62.503	A-:7
4E-	-gor	.	.	.	H	.	.
8E-	Bal-	.	.	.	.	.	.
8E-	-ti-	.	.	.	.	.	.
8E-	-more	.	.	.	H	.	.
[8E-	Sal-	.	.	.	.	.	.
=36	=36	=36	=36	=36	=36	=36	=36
8E-]	_	1A-Mm	.	voice	.	63.492	A-:7
8E-	-va-	.	.	.	.	.	.
8E-	-dor	.	.	.	H	.	.
[8E-	A-	.	.	.	.	.	.
8E-]	_	.	.	.	.	.	.
8E-	-ma-	.	.	.	.	.	.
8E-	-ri-	.	.	.	.	.	.
8E-	-llo	.	.	.	H	.	.
=37	=37	=37	=37	=37	=37	=37	=37
8D-	To-	1D-M	.	voice	.	64.481	D-:maj
8D-	-co-	.	.	.	.	.	.
8D-	-pill-	.	.	.	(I	.	.
8D-	-a	.	.	.	i)	.	.
8D-	Barr-	.	.	.	.	.	.
8D-	-an-	.	.	.	.	.	.
8D-	-qui-	.	.	.	(I	.	.
8D-	-lla	.	.	.	i)	.	.
=38	=38	=38	=38	=38	=38	=38	=38
8D-	and	1D-M	.	voice	.	65.471	D-:maj
8D-	Pa-	.	.	.	.	.	.
8D-	-di-	.	.	.	(I	.	.
8D-	-lla	.	.	.	i)	.	.
8D-	I'm	.	.	.	.	.	.
8D-	a	.	.	.	.	.	.
8D-	ki-	.	.	.	(I	.	.
8D-	-ller	.	.	.	i)	.	.
=39	=39	=39	=39	=39	=39	=39	=39
*>Letter>C	*>Letter>C	*>Letter>C	*>Letter>C	*>Letter>C	*>Letter>C	*>Letter>C	*>Letter>C
*>Label>Chorus	*>Label>Chorus	*>Label>Chorus	*>Label>Chorus	*>Label>Chorus	*>Label>Chorus	*>Label>Chorus	*>Label>Chorus
4F	I've	1D-M	newline	voice	.	66.46	D-:maj
8D-	been	.	.	.	.	.	.
4.D-	eve-	.	.	.	.	.	.
4BB-	-ry-	.	.	.	.	.	.
=40	=40	=40	=40	=40	=40	=40	=40
2D-	-where	1D-M	.	voice	D	67.458	D-:maj
8F	man	.	.	.	.	.	.
8r	.	.	.	.	.	.	.
8r	.	.	.	.	.	.	.
[8F	I've	.	.	.	.	.	.
=41	=41	=41	=41	=41	=41	=41	=41
4F]	_	1D-M	.	voice	.	68.457	D-:maj
8D-	been	.	.	.	.	.	.
4.D-	eve-	.	.	.	.	.	.
4BB-	-ry-	.	.	.	.	.	.
=42	=42	=42	=42	=42	=42	=42	=42
2D-	-where	1D-M	.	voice	D	69.455	D-:maj
4F	man	.	.	.	.	.	.
4r	.	.	.	.	.	.	.
=43	=43	=43	=43	=43	=43	=43	=43
4F	Cross	1G-Mm	newline	voice	.	70.454	G-:7
8D-	the	.	.	.	.	.	.
4.D-	de-	.	.	.	.	.	.
4BB-	-serts	.	.	.	.	.	.
=44	=44	=44	=44	=44	=44	=44	=44
4.D-	bare	1G-Mm	.	voice	D	71.457	G-:7
4.F	man	.	.	.	.	.	.
4D-	I've	.	.	.	.	.	.
=45	=45	=45	=45	=45	=45	=45	=45
4F	breathed	1D-M	.	voice	.	72.46	D-:maj
8D-	the	.	.	.	.	.	.
4.D-	moun-	.	.	.	.	.	.
4BB-	-tain	.	.	.	.	.	.
=46	=46	=46	=46	=46	=46	=46	=46
4.D-	air	1D-M	.	voice	D	73.463	D-:maj
4.F	man	.	.	.	.	.	.
4D-	Of	.	.	.	.	.	.
=47	=47	=47	=47	=47	=47	=47	=47
8F	tra-	1A-Mm	newline	voice	.	74.466	A-:7
8E-	-vel	.	.	.	.	.	.
4E-	I've	.	.	.	.	.	.
4C	had	.	.	.	.	.	.
4AA-	my	.	.	.	.	.	.
=48	=48	=48	=48	=48	=48	=48	=48
2E-	share	1A-Mm	.	voice	D	75.468	A-:7
8F	man	.	.	.	.	.	.
8r	.	.	.	.	.	.	.
8r	.	.	.	.	.	.	.
[8F	I've	.	.	.	.	.	.
=49	=49	=49	=49	=49	=49	=49	=49
4F]	_	1A-Mm	.	voice	.	76.47	A-:7
8D-	been	.	.	.	.	.	.
4.D-	eve-	.	.	.	.	.	.
4BB-	-ry-	.	.	.	.	.	.
=50	=50	=50	=50	=50	=50	=50	=50
1D-	-where	1D-M	.	voice	D	77.472	D-:maj
=51	=51	=51	=51	=51	=51	=51	=51
1r	.	1D-M	.	voice	.	78.475	D-:maj
=52	=52	=52	=52	=52	=52	=52	=52
*>Letter>E	*>Letter>E	*>Letter>E	*>Letter>E	*>Letter>E	*>Letter>E	*>Letter>E	*>Letter>E
*>Label>Trans	*>Label>Trans	*>Label>Trans	*>Label>Trans	*>Label>Trans	*>Label>Trans	*>Label>Trans	*>Label>Trans
*D:	*	*D:	*D:	*D:	*	*D:	*D:
1r	.	1DM	newline	voice	.	79.477	D:maj
=53	=53	=53	=53	=53	=53	=53	=53
2r	.	1DM	.	voice	.	80.497	D:maj
4r	.	.	.	.	.	.	.
4AA	Bo-	.	.	.	.	.	.
=54	=54	=54	=54	=54	=54	=54	=54
*>Letter>B3	*>Letter>B3	*>Letter>B3	*>Letter>B3	*>Letter>B3	*>Letter>B3	*>Letter>B3	*>Letter>B3
*>Label>Verse	*>Label>Verse	*>Label>Verse	*>Label>Verse	*>Label>Verse	*>Label>Verse	*>Label>Verse	*>Label>Verse
4D	_	1DM	newline	voice	.	81.516	D:maj
4D	-ston	.	.	.	J	.	.
8D	Char-	.	.	.	.	.	.
8D	-les-	.	.	.	.	.	.
4D	-ton	.	.	.	J	.	.
=55	=55	=55	=55	=55	=55	=55	=55
4D	Day-	1DM	.	voice	.	82.502	D:maj
8D	-ton	.	.	.	J	.	.
8D	Lou-	.	.	.	.	.	.
8D	-is-	.	.	.	.	.	.
8D	-i-	.	.	.	.	.	.
8D	-a-	.	.	.	G	.	.
8D	-na	.	.	.	F	.	.
=56	=56	=56	=56	=56	=56	=56	=56
8D	Wa-	1DM	.	voice	.	83.487	D:maj
8D	-shing-	.	.	.	.	.	.
4D	-ton	.	.	.	J	.	.
4D	Hous-	.	.	.	.	.	.
4D	-ton	.	.	.	J	.	.
=57	=57	=57	=57	=57	=57	=57	=57
4D	Kings-	1DM	.	voice	.	84.472	D:maj
8D	-ton	.	.	.	J	.	.
4D	Tex-	.	.	.	.	.	.
8D	-ar-	.	.	.	.	.	.
8D	-ka-	.	.	.	G	.	.
8D	-na	.	.	.	F	.	.
=58	=58	=58	=58	=58	=58	=58	=58
8D	Mon-	1GMm	newline	voice	.	85.458	G:7
8D	-ter-	.	.	.	.	.	.
4D	-ey	.	.	.	K	.	.
8D	Fe-	.	.	.	.	.	.
8D	-rri-	.	.	.	.	.	.
4D	-day	.	.	.	K	.	.
=59	=59	=59	=59	=59	=59	=59	=59
8D	San-	1GMm	.	voice	G	86.462	G:7
8D	-ta	.	.	.	E	.	.
8D	Fe	.	.	.	K	.	.
4D	Tall-	.	.	.	.	.	.
8D	-a-	.	.	.	(l	.	.
8D	-poo-	.	.	.	L	.	.
8D	-sa	.	.	.	l)	.	.
=60	=60	=60	=60	=60	=60	=60	=60
4D	Glen	1DM	.	voice	.	87.466	D:maj
4D	Rock	.	.	.	.	.	.
4D	Black	.	.	.	.	.	.
4D	Rock	.	.	.	.	.	.
=61	=61	=61	=61	=61	=61	=61	=61
8D	Li-	1DM	.	voice	.	88.47	D:maj
8D	-ttle	.	.	.	.	.	.
8D	Rock	.	.	.	.	.	.
4D	Os-	.	.	.	.	.	.
8D	-ka-	.	.	.	(l	.	.
8D	-loo-	.	.	.	L	.	.
8D	-sa	.	.	.	l)	.	.
=62	=62	=62	=62	=62	=62	=62	=62
8E	Te-	1AMm	newline	voice	(M	89.474	A:7
8E	-nne-	.	.	.	m	.	.
4E	-ssee	.	.	.	M)	.	.
8E	He-	.	.	.	(M	.	.
8E	-nne-	.	.	.	m	.	.
8E	-ssey	.	.	.	M)	.	.
[8E	Chi-	.	.	.	(M	.	.
=63	=63	=63	=63	=63	=63	=63	=63
8E]	_	1AMm	.	voice	.	90.465	A:7
8E	-co-	.	.	.	m	.	.
4E	-pee	.	.	.	M)	.	.
8E	Spi-	.	.	.	.	.	.
8E	-rit	.	.	.	.	.	.
8E	Lake	.	.	.	.	.	.
[8D	Grand	.	.	.	.	.	.
=64	=64	=64	=64	=64	=64	=64	=64
4D]	_	1DM	.	voice	.	91.457	D:maj
4D	Lake	.	.	.	.	.	.
8D	De-	.	.	.	.	.	.
8D	-vil's	.	.	.	.	.	.
4D	Lake	.	.	.	.	.	.
=65	=65	=65	=65	=65	=65	=65	=65
8D	Cra-	1DM	.	voice	.	92.448	D:maj
8D	-ter	.	.	.	.	.	.
8D	Lake	.	.	.	N	.	.
8D	for	.	.	.	.	.	.
4D	Pete's	.	.	.	.	.	.
8D	sake	.	.	.	N	.	.
[8F#	I've	.	.	.	.	.	.
=66	=66	=66	=66	=66	=66	=66	=66
*>Letter>C2	*>Letter>C2	*>Letter>C2	*>Letter>C2	*>Letter>C2	*>Letter>C2	*>Letter>C2	*>Letter>C2
*>Label>Chorus	*>Label>Chorus	*>Label>Chorus	*>Label>Chorus	*>Label>Chorus	*>Label>Chorus	*>Label>Chorus	*>Label>Chorus
4F#]	_	1DM	newline	voice	.	93.44	D:maj
8D	been	.	.	.	.	.	.
4.D	eve-	.	.	.	.	.	.
4BB	-ry-	.	.	.	.	.	.
=67	=67	=67	=67	=67	=67	=67	=67
2D	-where	1DM	.	voice	D	94.439	D:maj
4F#	man	.	.	.	.	.	.
4r	.	.	.	.	.	.	.
=68	=68	=68	=68	=68	=68	=68	=68
4F#	I've	1DM	.	voice	.	95.437	D:maj
8D	been	.	.	.	.	.	.
4.D	eve-	.	.	.	.	.	.
4BB	-ry-	.	.	.	.	.	.
=69	=69	=69	=69	=69	=69	=69	=69
2D	-where	1DM	.	voice	D	96.436	D:maj
8F#	man	.	.	.	.	.	.
8r	.	.	.	.	.	.	.
4r	.	.	.	.	.	.	.
=70	=70	=70	=70	=70	=70	=70	=70
4F#	Cross	1GMm	newline	voice	.	97.435	G:7
8D	the	.	.	.	.	.	.
4.D	de-	.	.	.	.	.	.
4BB	-serts	.	.	.	.	.	.
=71	=71	=71	=71	=71	=71	=71	=71
4.D	bare	1GMm	.	voice	D	98.445	G:7
4.F#	man	.	.	.	.	.	.
4D	I've	.	.	.	.	.	.
=72	=72	=72	=72	=72	=72	=72	=72
4F#	breathed	1DM	.	voice	.	99.455	D:maj
8D	the	.	.	.	.	.	.
4.D	moun-	.	.	.	.	.	.
4BB	-tain	.	.	.	.	.	.
=73	=73	=73	=73	=73	=73	=73	=73
4.D	air	1DM	.	voice	D	100.465	D:maj
4F#	man	.	.	.	.	.	.
8r	.	.	.	.	.	.	.
4D	Of	.	.	.	.	.	.
=74	=74	=74	=74	=74	=74	=74	=74
8F#	tra-	1AMm	newline	voice	.	101.475	A:7
8E	-vel	.	.	.	.	.	.
4E	I've	.	.	.	.	.	.
4C#	had	.	.	.	.	.	.
4AA	my	.	.	.	.	.	.
=75	=75	=75	=75	=75	=75	=75	=75
2E	share	1AMm	.	voice	D	102.475	A:7
4F#	man	.	.	.	.	.	.
8r	.	.	.	.	.	.	.
[8F#	I've	.	.	.	.	.	.
=76	=76	=76	=76	=76	=76	=76	=76
4F#]	_	1AMm	.	voice	.	103.474	A:7
8D	been	.	.	.	.	.	.
4.D	eve-	.	.	.	.	.	.
4BB	-ry-	.	.	.	.	.	.
=77	=77	=77	=77	=77	=77	=77	=77
1D	-where	1DM	.	voice	D	104.473	D:maj
=78	=78	=78	=78	=78	=78	=78	=78
1r	.	1DM	.	voice	.	105.472	D:maj
=79	=79	=79	=79	=79	=79	=79	=79
*>Letter>E2	*>Letter>E2	*>Letter>E2	*>Letter>E2	*>Letter>E2	*>Letter>E2	*>Letter>E2	*>Letter>E2
*>Label>Trans	*>Label>Trans	*>Label>Trans	*>Label>Trans	*>Label>Trans	*>Label>Trans	*>Label>Trans	*>Label>Trans
*E-:	*	*E-:	*E-:	*E-:	*	*E-:	*E-:
1r	.	1E-M	newline	voice	.	106.471	E-:maj
=80	=80	=80	=80	=80	=80	=80	=80
2r	.	1E-M	.	voice	.	107.479	E-:maj
4.r	.	.	.	.	.	.	.
[8E-	Lou-	.	.	.	.	.	.
=81	=81	=81	=81	=81	=81	=81	=81
*>Letter>B4	*>Letter>B4	*>Letter>B4	*>Letter>B4	*>Letter>B4	*>Letter>B4	*>Letter>B4	*>Letter>B4
*>Label>Verse	*>Label>Verse	*>Label>Verse	*>Label>Verse	*>Label>Verse	*>Label>Verse	*>Label>Verse	*>Label>Verse
8E-]	_	1E-M	newline	voice	.	108.486	E-:maj
8E-	-is-	.	.	.	.	.	.
4E-	-ville	.	.	.	I	.	.
4E-	Nash-	.	.	.	.	.	.
8E-	-ville	.	.	.	K	.	.
[8E-	Knox-	.	.	.	.	.	.
=82	=82	=82	=82	=82	=82	=82	=82
4E-]	_	1E-M	.	voice	.	109.477	E-:maj
8E-	-ville	.	.	.	K	.	.
4E-	Om-	.	.	.	.	.	.
8E-	-ba-	.	.	.	.	.	.
8E-	-bi-	.	.	.	(O	.	.
8E-	-ka	.	.	.	o)	.	.
=83	=83	=83	=83	=83	=83	=83	=83
8E-	She-	1E-M	.	voice	.	110.469	E-:maj
8E-	-ffer-	.	.	.	.	.	.
4E-	-ville	.	.	.	K	.	.
8E-	Jack-	.	.	.	.	.	.
8E-	-son-	.	.	.	.	.	.
8E-	-ville	.	.	.	K	.	.
[8E-	Wa-	.	.	.	.	.	.
=84	=84	=84	=84	=84	=84	=84	=84
8E-]	_	1E-M	.	voice	.	111.46	E-:maj
8E-	-ter-	.	.	.	.	.	.
8E-	-ville	.	.	.	K	.	.
4E-	Co-	.	.	.	.	.	.
8E-	-sta	.	.	.	.	.	.
8E-	Ri-	.	.	.	(O	.	.
8E-	-ca	.	.	.	o)	.	.
=85	=85	=85	=85	=85	=85	=85	=85
4E-	Pitts-	1A-Mm	newline	voice	.	112.451	A-:7
4E-	-field	.	.	.	p	.	.
4E-	Spring-	.	.	.	.	.	.
8E-	-field	.	.	.	p	.	.
[8E-	Ba-	.	.	.	.	.	.
=86	=86	=86	=86	=86	=86	=86	=86
8E-]	_	1A-Mm	.	voice	.	113.459	A-:7
8E-	-kers-	.	.	.	.	.	.
4E-	-field	.	.	.	p	.	.
4E-	Shreve-	.	.	.	.	.	.
8E-	-port	.	.	.	q	.	.
[8E-	Hack-	.	.	.	G	.	.
=87	=87	=87	=87	=87	=87	=87	=87
8E-]	_	1E-M	.	voice	.	114.468	E-:maj
8E-	-en-	.	.	.	.	.	.
4E-	-sack	.	.	.	G	.	.
8E-	Ca-	.	.	.	G	.	.
8E-	-di-	.	.	.	.	.	.
8E-	-llac	.	.	.	G	.	.
[8E-	Fond	.	.	.	.	.	.
=88	=88	=88	=88	=88	=88	=88	=88
8E-]	_	1E-M	.	voice	.	115.476	E-:maj
8E-	do	.	.	.	.	.	.
4E-	Lac	.	.	.	G	.	.
8E-	Da-	.	.	.	G	.	.
8E-	-ven-	.	.	.	.	.	.
4E-	-port	.	.	.	A	.	.
=89	=89	=89	=89	=89	=89	=89	=89
8F	I-	1B-Mm	newline	voice	.	116.484	B-:7
8F	-da-	.	.	.	.	.	.
4F	-ho	.	.	.	A	.	.
8F	Je-	.	.	.	.	.	.
8F	-lli-	.	.	.	.	.	.
8F	-coe	.	.	.	A	.	.
[8F	Ar-	.	.	.	.	.	.
=90	=90	=90	=90	=90	=90	=90	=90
8F]	_	1B-Mm	.	voice	.	117.473	B-:7
8F	-gen-	.	.	.	.	.	.
8F	-ti-	.	.	.	(Q	.	.
8F	-na	.	.	.	q)	.	.
8F	Dia-	.	.	.	.	.	.
8F	-mon-	.	.	.	.	.	.
8F	-ti-	.	.	.	(Q	.	.
8F	-na	.	.	.	q)	.	.
=91	=91	=91	=91	=91	=91	=91	=91
8E-	Pa-	1E-M	.	voice	.	118.462	E-:maj
8E-	-sa-	.	.	.	.	.	.
8E-	-de-	.	.	.	(Q	.	.
8E-	-na	.	.	.	q)	.	.
8E-	Ca-	.	.	.	.	.	.
8E-	-ta-	.	.	.	.	.	.
8E-	-li-	.	.	.	(Q	.	.
8E-	-na	.	.	.	q)	.	.
=92	=92	=92	=92	=92	=92	=92	=92
4E-	See	1E-M	.	voice	.	119.451	E-:maj
8E-	what	.	.	.	.	.	.
8E-	I	.	.	.	.	.	.
4E-	mean	.	.	.	(Q	.	.
8E-	sir?	.	.	.	q)	.	.
[8G	I've	.	.	.	.	.	.
=93	=93	=93	=93	=93	=93	=93	=93
*>Letter>C3	*>Letter>C3	*>Letter>C3	*>Letter>C3	*>Letter>C3	*>Letter>C3	*>Letter>C3	*>Letter>C3
*>Label>Chorus	*>Label>Chorus	*>Label>Chorus	*>Label>Chorus	*>Label>Chorus	*>Label>Chorus	*>Label>Chorus	*>Label>Chorus
4G]	_	1E-M	newline	voice	.	120.44	E-:maj
8E-	been	.	.	.	.	.	.
4.E-	eve-	.	.	.	.	.	.
4C	-ry-	.	.	.	.	.	.
=94	=94	=94	=94	=94	=94	=94	=94
2E-	-where	1E-M	.	voice	D	121.442	E-:maj
4G	man	.	.	.	.	.	.
4r	.	.	.	.	.	.	.
=95	=95	=95	=95	=95	=95	=95	=95
4G	I've	1E-M	.	voice	.	122.444	E-:maj
8E-	been	.	.	.	.	.	.
4.E-	eve-	.	.	.	.	.	.
4C	-ry-	.	.	.	.	.	.
=96	=96	=96	=96	=96	=96	=96	=96
2E-	-where	1E-M	.	voice	D	123.447	E-:maj
4G	man	.	.	.	.	.	.
4r	.	.	.	.	.	.	.
=97	=97	=97	=97	=97	=97	=97	=97
4G	Cross	1A-Mm	newline	voice	.	124.449	A-:7
8E-	the	.	.	.	.	.	.
4.E-	de-	.	.	.	.	.	.
4C	-serts	.	.	.	.	.	.
=98	=98	=98	=98	=98	=98	=98	=98
4.E-	bare	1A-Mm	.	voice	D	125.469	A-:7
4.G	man	.	.	.	.	.	.
4E-	I've	.	.	.	.	.	.
=99	=99	=99	=99	=99	=99	=99	=99
4G	breathed	1E-M	.	voice	.	126.489	E-:maj
8E-	the	.	.	.	.	.	.
4.E-	moun-	.	.	.	.	.	.
4C	-tain	.	.	.	.	.	.
=100	=100	=100	=100	=100	=100	=100	=100
4.E-	air	1E-M	.	voice	D	127.508	E-:maj
4.G	man	.	.	.	.	.	.
4E-	Of	.	.	.	.	.	.
=101	=101	=101	=101	=101	=101	=101	=101
8G	tra-	1B-Mm	newline	voice	.	128.528	B-:7
8F	-vel	.	.	.	.	.	.
4F	I've	.	.	.	.	.	.
4D	had	.	.	.	.	.	.
4BB-	my	.	.	.	.	.	.
=102	=102	=102	=102	=102	=102	=102	=102
2F	share	1B-Mm	.	voice	D	129.521	B-:7
4.G	man	.	.	.	.	.	.
[8G	I've	.	.	.	.	.	.
=103	=103	=103	=103	=103	=103	=103	=103
4G]	_	1B-Mm	.	voice	.	130.515	B-:7
8E-	been	.	.	.	.	.	.
4.E-	eve-	.	.	.	.	.	.
4C	-ry-	.	.	.	.	.	.
=104	=104	=104	=104	=104	=104	=104	=104
1E-	-where	1E-M	.	voice	D	131.508	E-:maj
=105	=105	=105	=105	=105	=105	=105	=105
1r	.	1E-M	.	voice	.	132.502	E-:maj
=106	=106	=106	=106	=106	=106	=106	=106
*>Letter>E3	*>Letter>E3	*>Letter>E3	*>Letter>E3	*>Letter>E3	*>Letter>E3	*>Letter>E3	*>Letter>E3
*>Label>Trans	*>Label>Trans	*>Label>Trans	*>Label>Trans	*>Label>Trans	*>Label>Trans	*>Label>Trans	*>Label>Trans
*E:	*	*E:	*E:	*E:	*	*E:	*E:
1r	.	1EM	newline	voice	.	133.495	E:maj
=107	=107	=107	=107	=107	=107	=107	=107
2r	.	1EM	.	voice	.	134.513	E:maj
4.r	.	.	.	.	.	.	.
[8E	Pitts-	.	.	.	.	.	.
=108	=108	=108	=108	=108	=108	=108	=108
*>Letter>B5	*>Letter>B5	*>Letter>B5	*>Letter>B5	*>Letter>B5	*>Letter>B5	*>Letter>B5	*>Letter>B5
*>Label>Verse	*>Label>Verse	*>Label>Verse	*>Label>Verse	*>Label>Verse	*>Label>Verse	*>Label>Verse	*>Label>Verse
4E]	_	1EM	newline	voice	.	135.53	E:maj
4E	-burgh	.	.	.	S	.	.
8E	Park-	.	.	.	.	.	.
8E	-ers-	.	.	.	.	.	.
8E	-burg	.	.	.	S	.	.
[8E	Gra-	.	.	.	.	.	.
=109	=109	=109	=109	=109	=109	=109	=109
8E]	_	1EM	.	voice	.	136.51	E:maj
8E	-vell-	.	.	.	.	.	.
4E	-burg	.	.	.	S	.	.
8E	Co-	.	.	.	.	.	.
8E	-lo-	.	.	.	(t	.	.
8E	-ra-	.	.	.	T	.	.
8E	-do	.	.	.	t)	.	.
=110	=110	=110	=110	=110	=110	=110	=110
8E	Ell-	1EM	.	voice	.	137.489	E:maj
8E	-ens-	.	.	.	.	.	.
4E	-burg	.	.	.	S	.	.
4E	Rex-	.	.	.	.	.	.
4E	-burg	.	.	.	S	.	.
=111	=111	=111	=111	=111	=111	=111	=111
4E	Vicks-	1EM	.	voice	.	138.468	E:maj
8E	-burg	.	.	.	S	.	.
4E	El-	.	.	.	.	.	.
8E	-do-	.	.	.	(t	.	.
8E	-ra-	.	.	.	T	.	.
8E	-do	.	.	.	t)	.	.
=112	=112	=112	=112	=112	=112	=112	=112
8E	Larr-	1AMm	newline	voice	.	139.448	A:7
8E	-i-	.	.	.	.	.	.
8E	-more	.	.	.	H	.	.
4.E	At-	.	.	.	.	.	.
4E	-more	.	.	.	H	.	.
=113	=113	=113	=113	=113	=113	=113	=113
8E	Ha-	1AMm	.	voice	.	140.451	A:7
8E	-ver-	.	.	.	.	.	.
8E	-straw	.	.	.	U	.	.
4E	Cha-	.	.	.	.	.	.
8E	-tta-	.	.	.	.	.	.
8E	-ni-	.	.	.	.	.	.
8E	-ka	.	.	.	U	.	.
=114	=114	=114	=114	=114	=114	=114	=114
4E	Chas-	1EM	.	voice	(V	141.455	E:maj
8E	-ka	.	.	.	v)	.	.
8E	Ne-	.	.	.	.	.	.
4E	-bras-	.	.	.	(V	.	.
8E	-ka	.	.	.	v)	.	.
8E	A-	.	.	.	.	.	.
=115	=115	=115	=115	=115	=115	=115	=115
4E	-las-	1EM	.	voice	(V	142.458	E:maj
8E	-ka	.	.	.	v)	.	.
4E	O-	.	.	.	.	.	.
8E	-pe-	.	.	.	.	.	.
8E	-li-	.	.	.	(V	.	.
8E	-ka	.	.	.	v)	.	.
=116	=116	=116	=116	=116	=116	=116	=116
8F#	Ba-	1BMm	newline	voice	.	143.461	B:7
8F#	-ra-	.	.	.	.	.	.
4F#	-boo	.	.	.	W	.	.
8F#	Wa-	.	.	.	.	.	.
8F#	-ter-	.	.	.	.	.	.
8F#	-loo	.	.	.	W	.	.
[8F#	Kala-	.	.	.	.	.	.
=117	=117	=117	=117	=117	=117	=117	=117
8F#]	_	1BMm	.	voice	.	144.442	B:7
8F#	-ma-	.	.	.	.	.	.
4F#	-zoo	.	.	.	W	.	.
8F#	Kan-	.	.	.	.	.	.
8F#	-sas	.	.	.	.	.	.
8F#	Ci-	.	.	.	.	.	.
8F#	-ty	.	.	.	.	.	.
=118	=118	=118	=118	=118	=118	=118	=118
4E	Sioux	1EM	.	voice	.	145.423	E:maj
8E	Ci-	.	.	.	.	.	.
8E	-ty	.	.	.	.	.	.
8E	Ce-	.	.	.	.	.	.
8E	-dar	.	.	.	.	.	.
8E	Ci-	.	.	.	.	.	.
8E	-ty	.	.	.	.	.	.
=119	=119	=119	=119	=119	=119	=119	=119
4E	Dodge	1EM	.	voice	.	146.404	E:maj
8E	Ci-	.	.	.	(X	.	.
8E	-ty	.	.	.	x)	.	.
8E	What	.	.	.	.	.	.
8E	a	.	.	.	.	.	.
8E	pi-	.	.	.	(X	.	.
8E	-ty	.	.	.	x)	.	.
=120	=120	=120	=120	=120	=120	=120	=120
*>Letter>C4	*>Letter>C4	*>Letter>C4	*>Letter>C4	*>Letter>C4	*>Letter>C4	*>Letter>C4	*>Letter>C4
*>Label>Chorus	*>Label>Chorus	*>Label>Chorus	*>Label>Chorus	*>Label>Chorus	*>Label>Chorus	*>Label>Chorus	*>Label>Chorus
4G#	I've	1EM	newline	voice	.	147.385	E:maj
8E	been	.	.	.	.	.	.
4.E	eve-	.	.	.	.	.	.
4C#	-ry-	.	.	.	.	.	.
=121	=121	=121	=121	=121	=121	=121	=121
2E	-where	1EM	.	voice	D	148.386	E:maj
4G#	man	.	.	.	.	.	.
8r	.	.	.	.	.	.	.
[8G#	I've	.	.	.	.	.	.
=122	=122	=122	=122	=122	=122	=122	=122
4G#]	_	1EM	.	voice	.	149.387	E:maj
8E	been	.	.	.	.	.	.
4.E	eve-	.	.	.	.	.	.
4C#	-ry-	.	.	.	.	.	.
=123	=123	=123	=123	=123	=123	=123	=123
2E	-where	1EM	.	voice	D	150.388	E:maj
4G#	man	.	.	.	.	.	.
4r	.	.	.	.	.	.	.
=124	=124	=124	=124	=124	=124	=124	=124
4G#	Cross	1AMm	newline	voice	.	151.389	A:7
8E	the	.	.	.	.	.	.
4.E	de-	.	.	.	.	.	.
4C#	-serts	.	.	.	.	.	.
=125	=125	=125	=125	=125	=125	=125	=125
4.E	bare	1AMm	.	voice	D	152.38	A:7
4.G#	man	.	.	.	.	.	.
4E	I've	.	.	.	.	.	.
=126	=126	=126	=126	=126	=126	=126	=126
4G#	breathed	1EM	.	voice	.	153.372	E:maj
8E	the	.	.	.	.	.	.
4.E	moun-	.	.	.	.	.	.
4C#	-tain	.	.	.	.	.	.
=127	=127	=127	=127	=127	=127	=127	=127
4.E	air	1EM	.	voice	D	154.363	E:maj
4.G#	man	.	.	.	.	.	.
4E	Of	.	.	.	.	.	.
=128	=128	=128	=128	=128	=128	=128	=128
8G#	tra-	1BMm	newline	voice	.	155.354	B:7
8F#	-vel	.	.	.	.	.	.
4F#	I've	.	.	.	.	.	.
4D#	had	.	.	.	.	.	.
4BB	my	.	.	.	.	.	.
=129	=129	=129	=129	=129	=129	=129	=129
2F#	share	1BMm	.	voice	D	156.354	B:7
4G#	man	.	.	.	.	.	.
8r	.	.	.	.	.	.	.
8r	.	.	.	.	.	.	.
=130	=130	=130	=130	=130	=130	=130	=130
1r	.	1N	.	voice	.	157.354	N.C.
=131	=131	=131	=131	=131	=131	=131	=131
2.r	.	1N	.	voice	.	158.354	N.C.
4EE	I've	.	.	.	.	.	.
=132	=132	=132	=132	=132	=132	=132	=132
4BB	_	1N	.	voice	.	159.354	N.C.
4AA	been	.	.	.	.	.	.
4GG#	eve-	.	.	.	.	.	.
4FF#	-ry-	.	.	.	.	.	.
=133	=133	=133	=133	=133	=133	=133	=133
*>Letter>F	*>Letter>F	*>Letter>F	*>Letter>F	*>Letter>F	*>Letter>F	*>Letter>F	*>Letter>F
*>Label>Outro	*>Label>Outro	*>Label>Outro	*>Label>Outro	*>Label>Outro	*>Label>Outro	*>Label>Outro	*>Label>Outro
[1EE	-where	1EM	newline	voice	D	160.354	E:maj
=134	=134	=134	=134	=134	=134	=134	=134
1EE]	_	1EM	.	voice	.	161.353	E:maj
=135	=135	=135	=135	=135	=135	=135	=135
1r	.	1EM	.	voice	.	162.353	E:maj
=136	=136	=136	=136	=136	=136	=136	=136
1r	.	1EM	.	voice	.	163.352	E:maj
r;	.	1r;	.	r	.	166.1	N.C.
r;	.	1r;	.	r	.	166.767	N.C.
*-	*-	*-	*-	*-	*-	*-	*-
!!!BillboardChartDate: 1962/10/20
!!!BillboardPeak: 68
!!!BillboardWeeksOnChart: 8
!!!COC: Hank Snow
!!!EMD: Changed 6/8 in McGill intro to 12/8
!!!ENC: Nathaniel Condit-Schultz
!!!EST: Awating manual error checking and editing.
!!!OTL: I've Been Everywhere
!!!RDF**chordsym: original McGill chord annotation + (implied pitch class set, with bass pitch in first position)
!!!RDF**harmony: **recip + pitch class of root + harmonic quality
!!!RDF**leadinstrument: original McGill primary instrumentation annotation
!!!RDF**phrase: newline = linebreak in original McGill transcription
!!!RDF**timestamp: McGill audio timestamp in seconds
!!!RDT: 2017/01/12/
!!!SampleActualRank: 86
!!!SampleID#: 1059
!!!SampleTargetRank: 86
